OFDR/img/icons/social/telegram.svg

<svg width="16" height="14" viewBox="0 0 16 14" fill="none" xmlns="http://www.w3.org/2000/svg">
<path fill-rule="evenodd" clip-rule="evenodd" d="M3.96933 8.0958L0.282608 6.71295C-0.0918463 6.57193 -0.0950996 6.04066 0.278288 5.89594L15.4087 0.0300401C15.7295 -0.0946306 16.0604 0.187781 15.9906 0.526311L13.2753 13.6522C13.2113 13.9621 12.8498 14.1026 12.5946 13.9162L8.88801 11.2118C8.66288 11.0475 8.35606 11.0563 8.14064 11.2327L6.0856 12.9164C5.84704 13.1124 5.48763 13.0032 5.39632 12.7078L3.96933 8.0958ZM12.8005 3.01974L5.35628 7.37763C5.07096 7.54501 4.93662 7.87251 5.02881 8.1791L5.83369 10.8672C5.89083 11.0577 6.18172 11.0381 6.20944 10.8413L6.41872 9.36721C6.45817 9.08968 6.59747 8.83399 6.81342 8.64293L12.9571 3.21489C13.072 3.1136 12.9343 2.94165 12.8005 3.01974Z" fill="white"/>
</svg>

<svg width="16" height="14" fill="none" xmlns="http://www.w3.org/2000/svg"><path fill-rule="evenodd" clip-rule="evenodd" d="M3.97 8.096L.282 6.713a.438.438 0 01-.005-.817L15.408.03a.435.435 0 01.583.496l-2.716 13.126a.434.434 0 01-.68.264l-3.707-2.704a.61.61 0 00-.747.02l-2.055 1.684a.433.433 0 01-.69-.208L3.97 8.096zM12.8 3.02L5.356 7.378a.697.697 0 00-.327.801l.805 2.688c.057.19.348.171.375-.026l.21-1.474c.04-.277.178-.533.394-.724l6.144-5.428c.115-.101-.023-.273-.157-.195z" fill="#fff"/></svg>
